X:0935
T:Mr Binden's Fancy,
C:Irish.
M:6/8
L:1/8
Q:3/8=108
I: :: ||
N:last note in each part is printed E2
Z:Jack Campin * www.campin.me.uk * 2009
K:E Minor
GGG       GGG      |G>AB/c/      dBG         |GGG GGG      |ABd e2g|
dBG       GGG      |G/F/G/A/B/c/ dBG         |AGA Bd/c/B/A/|GEE E3:|
ggg       g>ab     |dBg          e/d/c/B/A/G/|ggg a>ga     |bge e2f|
gb/g/b/g/ eg/e/g/e/|dBg          e/d/c/B/A/G/|AGA Bd/c/B/A/|GEE E3:|
<end>
<start>
